Sources/Octicons.swift/Resources/Media.xcassets/play-24.imageset/play-24.svg

<svg xmlns="http://www.w3.org/2000/svg" viewBox="0 0 24 24" width="24" height="24">  <path d="M9.5 15.5842V8.41583C9.5 8.02025 9.93762 7.78133 10.2704 7.99524L15.8458 11.5794C16.1519 11.7762 16.1519 12.2238 15.8458 12.4206L10.2704 16.0048C9.93762 16.2187 9.5 15.9798 9.5 15.5842Z"></path>
  <path fill-rule="evenodd" clip-rule="evenodd" d="M12 2.5C6.75329 2.5 2.5 6.75329 2.5 12C2.5 17.2467 6.75329 21.5 12 21.5C17.2467 21.5 21.5 17.2467 21.5 12C21.5 6.75329 17.2467 2.5 12 2.5ZM1 12C1 5.92487 5.92487 1 12 1C18.0751 1 23 5.92487 23 12C23 18.0751 18.0751 23 12 23C5.92487 23 1 18.0751 1 12Z"></path></svg>

<svg xmlns="http://www.w3.org/2000/svg" width="24" height="24" viewBox="0 0 24 24"><path d="M9.5 15.584V8.416a.5.5 0 0 1 .77-.42l5.576 3.583a.5.5 0 0 1 0 .842l-5.576 3.584a.5.5 0 0 1-.77-.42Z"/><path d="M1 12C1 5.925 5.925 1 12 1s11 4.925 11 11-4.925 11-11 11S1 18.075 1 12Zm11-9.5A9.5 9.5 0 0 0 2.5 12a9.5 9.5 0 0 0 9.5 9.5 9.5 9.5 0 0 0 9.5-9.5A9.5 9.5 0 0 0 12 2.5Z"/></svg>
